X: 192
T:Manor Gardens
% Nottingham Music Database
S:Pauline Wilson, via Phil Rowe
M:6/8
K:G
"G"G2F G2A|BAG d2d|"C"gfe "G"dcB|"Am"d2c "D7"A2D|
"G"G2F G2A|"G"BAG d2e|"Am"fed "D7"cBA|"G"G3 G3::
"C"gec gec|"G"d2B G3|"D7"DFA cdc|"G"B2c d3|
"C"gec gec|"G"d2B G2B|"Am"dcB "D7"AGF|"G"G3 G3:|


